svg/beer.svg

<svg xmlns="http://www.w3.org/2000/svg" viewBox="0 0 52 64" enable-background="new 0 0 52 64"><style type="text/css">.st0{fill:#343434;}</style><title>beer</title><desc>Created with Sketch.</desc><path class="st0" d="M7 25h26v32h-26zM49.2 25h-9.2v-10c0-1.3-.8-2.4-2-2.8v-.2c0-4.4-3.6-8-8-8-1.4 0-2.8.4-3.9 1-1.5-3-4.5-5-8.1-5-3.2 0-6 1.6-7.6 4.1-.4-.1-.9-.1-1.4-.1-4.4 0-8 3.6-8 8 0 .3 0 .5.1.8-.7.5-1.1 1.3-1.1 2.2v46c0 1.7 1.4 3 3.1 3h33.9c1.7 0 3.1-1.3 3.1-3v-12h9.2c1.6 0 2.8-1.3 2.8-3v-18c-.1-1.7-1.4-3-2.9-3zm-38.7-18c.6 0 1.2.1 1.8.3.7-2.5 3-4.3 5.7-4.3 3.3 0 6 2.7 6 6v.1c.6.1 1.1.3 1.6.5.9-1.6 2.5-2.6 4.4-2.6 2.8 0 5 2.2 5 5h-30.9c.5-2.8 3-5 6.4-5zm25.5 51.2c0 1-.8 1.8-1.7 1.8h-28.6c-1 0-1.7-.8-1.7-1.8v-40.4c0-1 .8-1.8 1.7-1.8h28.6c1 0 1.7.8 1.7 1.8v40.4zm12-13.2h-8v-16h8v16z"/></svg>

<?xml version="1.0" encoding="utf-8"?>
<!-- Generator: Adobe Illustrator 21.0.0, SVG Export Plug-In . SVG Version: 6.00 Build 0)  -->
<svg version="1.1" id="Layer_1" xmlns="http://www.w3.org/2000/svg" xmlns:xlink="http://www.w3.org/1999/xlink" x="0px" y="0px"
	 viewBox="0 0 52 64" style="enable-background:new 0 0 52 64;" xml:space="preserve">
<style type="text/css">
	.st0{fill:#343434;}
</style>
<title>beer</title>
<desc>Created with Sketch.</desc>
<g>
	<rect x="7" y="25" class="st0" width="26" height="32"/>
	<path class="st0" d="M49.2,25H40V15c0-1.3-0.8-2.4-2-2.8c0-0.1,0-0.1,0-0.2c0-4.4-3.6-8-8-8c-1.4,0-2.8,0.4-3.9,1
		c-1.5-3-4.5-5-8.1-5c-3.2,0-6,1.6-7.6,4.1C10,4,9.5,4,9,4c-4.4,0-8,3.6-8,8c0,0.3,0,0.5,0.1,0.8C0.4,13.3,0,14.1,0,15v46
		c0,1.7,1.4,3,3.1,3h33.9c1.7,0,3.1-1.3,3.1-3V49h9.2c1.6,0,2.8-1.3,2.8-3V28C52,26.3,50.7,25,49.2,25z M10.5,7
		c0.6,0,1.2,0.1,1.8,0.3C13,4.8,15.3,3,18,3c3.3,0,6,2.7,6,6c0,0,0,0.1,0,0.1c0.6,0.1,1.1,0.3,1.6,0.5C26.5,8,28.1,7,30,7
		c2.8,0,5,2.2,5,5H4.1C4.6,9.2,7.1,7,10.5,7z M36,58.2c0,1-0.8,1.8-1.7,1.8H5.7c-1,0-1.7-0.8-1.7-1.8V17.8c0-1,0.8-1.8,1.7-1.8h9.5
		h1.9H33h1.3c1,0,1.7,0.8,1.7,1.8V25v24V58.2z M48,45h-8V29h8V45z"/>
</g>
</svg>
